X: 231917
T: Women's Cliff HP
T: Faill na mBan
S: "Roche Collection of Traditional Irish Music" [II/18/234]
L: 1/8
M: 4/4
R: hornpipe
K: Ador
cB | AA,A,B, CDEF | G2 (3AGF G2 cB | AA,A,B, CDEG | c2 (3dcB ABcB |
AA,A,B, CDEF | G2 (3AGF G2 cd | ecdB cABG |1 ge (3dcB AB :|2\
ge (3dcB A2 A,2 ||
eaaf gbag | eaaf gedg | eaaf gedB | c2 (3dcB A2 A,2 |
eaaf gbag | eaaf gfga | (3bag (3agf (3gfe (3def|1 ge (3dcB A2 A,2 :|2\
(3gfe (3dcB ABcB ||
